X: 10981
U: p=!crescendo(!
U: P=!crescendo)!
M: 2/4
L: 1/16
K: G
z2 |\
!mf!G2(Bc) d2(^ce) | d2(^ce) .d2.B2 | c2(Bd) c2A2 | d2(^ce) d2B2 |\
!f!G2(Bc) d2(^ce) | d2(^ce) d2f2 | g2^c(c e2A)(c | d6) H|]
|: (3(ded) |\
d2f2 (a2ba) | g2(Bc) (ded^c) | d2f2 (a2ba) | g6 (fg) |\
pe2P^de (g2fe) | (d2^cd) (f2e)=c | (e2d)B (d2c)A | G6 :|
!f!.B2.e2 (g2fe) | f2B3 B({d}cB) | B2e2 g2(fe) | (^df)(^ab) B2B2 |\
e2 g4 (fe) | f2 a4 (gf) | (gb).B.B (^cB)(^dB) | "^D.C."e6 |]


